!!!!SEGMENT: pl-kk--kk-i-382--086_anonim--offertorium-nro-27.krn
!!!cenid: 18xx:1588
!!!COM: Anonim
!!!COM-rismid: pe30004985
!!!CDT:
!!!CNT:
!!!OTL: Offertorium Nro 27
!!!PDT:
!!!AGN: Sacred
!!!SMS-siglum: PL-Kk
!!!SMS-shelfmark: Kk.I.382
!!!SMS-shelfwork: 086 W
!!!SMS-variant:
!!!SMS-altvar:
!!!NIFC-rismid: 1001142409
!!!URL-scan: http://repozytorium.nifc.pl/skany/pl-kk-nut--i-382
!!!ONB-nifc: UWAGA: Offertoria od skanu 0041 (S/T1), 0113 (T2), 0185 (A/B1), 0262 (B2)
!!!ONB-nifc: UWAGA: obsada: S/T1, A/B1, T2, B2. Skany 0051, 0197, 0123-0124, 0272-0273
**kern	**text	**kern	**text	**kern	**text	**kern	**text
*part4	*part4	*part3	*part3	*part2	*part2	*part1	*part1
*staff4	*staff4	*staff3	*staff3	*staff2	*staff2	*staff1	*staff1
*I"Basso II	*	*I"Tenore II	*	*I"Alto vel Basso I	*	*I"Soprano vel Tenore I.	*
*I'B II	*	*I'T II	*	*I'A vel B I	*	*I'S vel T I	*
*clefF4	*	*clefC4	*	*clefC3	*	*clefC1	*
*k[b-]	*	*k[b-]	*	*k[b-]	*	*k[b-]	*
*M4/4	*	*M4/4	*	*M4/4	*	*M4/4	*
*met(C.)	*	*met(C.)	*	*met(C.)	*	*met(C.)	*
=1	=1	=1	=1	=1	=1	=1	=1
*all\right	*	*all\right	*	*all\right	*	*all\right	*
*2\right	*	*2\right	*	*2\right	*	*2\right	*
!LO:TX:a:t=Nro 27.	!	!LO:TX:a:t=Nro 27.	!	!LO:TX:a:t=Nro. 27.	!	!LO:TX:a:t=Nro. 27.	!
2.F\	O	2.A\	O	2.f\	O	(2cc\	O
.	.	.	.	.	.	4ff\)	.
4F\	quam	4c\	quam	4f\	quam	4ee\	quam
=2	=2	=2	=2	=2	=2	=2	=2
4F\	sva-	(8A\L	sva-	4f\	sva-	(8cc#X\L	sva-
.	.	8B-\J)	.	.	.	8dd\J)	.
4F\	-vis	(8c\L	-vis	4f\	-vis	(8ee\L	-vis
.	.	8B-\J)	.	.	.	8dd\J)	.
4F\	est	4B-\	est	4f\	est	4dd\	est
4r	.	4r	.	4r	.	4r	.
=3	=3	=3	=3	=3	=3	=3	=3
4F\	Do-	4d\	Do-	4f\	Do-	4ff\	Do-
8F\	-mi-	8d\	-mi-	8f\	-mi-	8ff\	-mi-
8F\	-ne	8d\	-ne	8f\	-ne	8ff\	-ne
4F\	spi-	4c\	spi-	4f\	spi-	4ee\	Spi-
8F\	-ri-	8B-\	-ri-	8f\	-ri-	8dd\	-ri-
!	!	!	!	!	!	!LO:TX:b:t=V&colon; S&colon;	!
8F\	-tus	8B-\	-tus	8f\	-tus	8dd\	-tus
!	!	!	!	!	!	!LO:PB:g=original	!
=4	=4	=4	=4	=4	=4	=4	=4
2F\	tu-	(4B-\	tu-	2f\	tu-	(4dd\	tu-
.	.	4A\)	.	.	.	4cc\)	.
4F\	-us	4A\	-us	4f\	-us	4cc\	-us
4r	.	4r	.	4r	.	4r	.
!LO:LB:g=original	!	!LO:LB:g=original	!	!LO:LB:g=original	!	!	!
=5	=5	=5	=5	=5	=5	=5	=5
2D\	qui	2F/	qui	2f\	qui	2b-\	qui
4C/	ut	4A\	ut	4f\	ut	4cc\	ut
4C/	dul-	4A\	dul-	4f\	dul-	4cc\	dul-
=6	=6	=6	=6	=6	=6	=6	=6
4.BB-/	-ce-	4.B-\	-ce-	4.f\	-ce-	4.dd\	-ce-
8C/	-di-	8A\	-di-	8f\	-di-	8cc\	-di-
!	!	!	!	!LO:TX:t=P:problem:tekst:nes poprawione na nem	!	!	!
4D/	-nem	4B-\	-nem	4f\	-nem	4b-\	-nem
4r	.	4r	.	4r	.	4r	.
=7	=7	=7	=7	=7	=7	=7	=7
!	!	!	!	!LO:TX:t=P:problem:4f poprawione na 2f	!	!	!
2D\	qui	2F/	qui	2f\	qui	2b-\	qui
4C/	ut	4A\	ut	4f\	ut	4cc\	ut
4C/	dul-	4A\	dul-	4f\	dul-	4cc\	dul-
=8	=8	=8	=8	=8	=8	=8	=8
4.BB-/	-ce-	4.B-\	-ce-	4.f\	-ce-	4.dd\	-ce-
8C/	-di-	8A\	-di-	8f\	-di-	8cc\	-di-
4D/	-nem	4B-\	-nem	4f\	-nem	4b-\	-nem
4C/	in	4c\	in	4f\	in	4a\	in
!	!	!	!	!	!	!LO:LB:g=original	!
=9	=9	=9	=9	=9	=9	=9	=9
4BB-/	fi-	4d\	fi-	4f\	fi-	4g\	fi-
8BB-/	-li-	8d\	-li-	8f\	-li-	8dd\	-li-
8BB-/	-os	8d\	-os	8f\	-os	8dd\	-os
!LO:LB:g=original	!	!	!	!LO:LB:g=original	!	!	!
4BB-/	de-	4d\	de-	4f\	de-	4dd\	de-
4BBn/	-mon-	4d\	-mon-	4f\	-mon-	4f/	-mon-
!	!	!LO:LB:g=original	!	!	!	!	!
=10	=10	=10	=10	=10	=10	=10	=10
2C/	-stra-	2c\	-stra-	(4f\	-stra-	(4a\	-stra-
.	.	.	.	4e\)	.	4g\)	.
4C/	-res	4c\	-res	4e\	-res	4g\	-res
4r	.	4r	.	4r	.	4r	.
=11	=11	=11	=11	=11	=11	=11	=11
2c\	pa-	2e\	pa-	2g\	pa-	(8e\L	pa-
.	.	.	.	.	.	8g\	.
.	.	.	.	.	.	8cc\	.
.	.	.	.	.	.	8ee\J)	.
4c\	-ne	4e\	-ne	4g\	-ne	4gg\	-ne
4G\	sva-	4d\	sva-	4f\	sua-	4bn\	sva-
=12	=12	=12	=12	=12	=12	=12	=12
4.C/	-vi[s]-	4.Bn\	-vi[s]-	4.f\	-vis-	4.dd\	-vis-
8C/	-si-	8c\	-si-	8e\	-si-	8cc\	-si-
4C/	-mo	4c\	-mo	4e\	-mo	4cc\	-mo
4C/	de	4c\	de	4e\	de	4cc\	de
!	!	!	!	!	!	!LO:LB:g=original	!
=13	=13	=13	=13	=13	=13	=13	=13
2.E\	Ce-	2.c\	ce-	2.g\	Ce-	(8b-\L	ce-
.	.	.	.	.	.	8ee\	.
.	.	.	.	.	.	8gg\	.
.	.	.	.	.	.	8ff\J)	.
.	.	.	.	.	.	(8ee\L	-lo
.	.	.	.	.	.	8dd\	.
4E\	-lo	4c\	-lo	4g\	-lo	8cc\	.
.	.	.	.	.	.	8b-\J)	.
!	!	!	!	!LO:LB:g=original	!	!	!
=14	=14	=14	=14	=14	=14	=14	=14
4.F\	pre-	4.c\	pre-	4.g\	pre-	4.b-\	pre-
8F\	-sti-	8c\	-sti-	8f\	-sti-	8a\	-sti-
4F\	-to	4c\	-to	4f\	-to	4a\	-to
4r	.	4r	.	4r	.	4f/	e-
!LO:LB:g=original	!	!LO:LB:g=original	!	!	!	!	!
=15	=15	=15	=15	=15	=15	=15	=15
4r	.	4r	.	4r	.	2.ff\	-su-
4D-X\	e-	4A-X\	e-	4f\	e-	.	.
4D-\	-su-	4A-\	-su-	4f\	-su-	.	.
4D-\	-ri-	4A-\	-ri-	4f\	-ri-	4ff\	-ri-
=16	=16	=16	=16	=16	=16	=16	=16
!	!	!	!	!	!	!LO:N:vis=8:problem:chorągiewki wykreślone ołówkiem	!
4D-X\	-en-	4A-X\	-en-	4f\	-en-	4ff\	-en-
!	!	!	!	!	!	!LO:N:vis=8:problem:chorągiewki wykreślone ołówkiem	!
4D-\	-tes	4A-\	-tes	4f\	-tes	4bn\	-tes
!	!	!	!	!	!	!LO:N:vis=8:problem:chorągiewki wykreślone ołówkiem	!
4D-\	re-	4A-\	re-	4f\	re-	4b\	re-
!	!	!	!	!	!	!LO:N:vis=8:problem:chorągiewki wykreślone ołówkiem	!
4D-\	-ples	4F/	-ples	4f\	-ples	4b\	-ples
!	!	!	!	!	!	!LO:LB:g=original	!
=17	=17	=17	=17	=17	=17	=17	=17
1C	bo-	1G	bo-	(2.f\	bo-	(2.dd\	bo-
.	.	.	.	4e\)	.	4cc\)	.
=18	=18	=18	=18	=18	=18	=18	=18
2C/	-nis	2G/	-nis,	2e\	-nis	2cc\	-nis
2r	.	4r	.	2r	.	2r	.
!	!	!LO:TX:b:t=V&colon; S&colon;	!	!	!	!	!
.	.	4r	.	.	.	.	.
!	!	!LO:PB:g=original	!	!LO:LB:g=original	!	!	!
=19	=19	=19	=19	=19	=19	=19	=19
2F\	fa-	2A\	fa-	2f\	fa-	2cc\	fa-
4F\	-sti-	4A\	-sti-	4f\	-sti-	4ff\	-sti-
4F\	-di-	4c\	-di-	4f\	-di-	4ee\	-di-
=20	=20	=20	=20	=20	=20	=20	=20
2F\	-o-	(8A\L	-o-	2f\	-o-	(8cc#X\L	-o-
.	.	8B-\	.	.	.	8dd\	.
.	.	8c\	.	.	.	8ee\	.
.	.	8B-\J)	.	.	.	8dd\J)	.
2F\	-sos	4B-\	-sos	4f\	-sos	4dd\	-sos
.	.	4r	.	4r	.	4r	.
!LO:LB:g=original	!	!	!	!	!	!	!
=21	=21	=21	=21	=21	=21	=21	=21
4.F\	di-	4.d\	di-	4.f\	di-	4.ff\	di-
!LO:SIC:v:l:s=-vi-	!	!	!	!	!	!	!
8F\	-vit-	8d\	-vi-	8f\	-vi-	8ff\	-vi-
4F\	-tes	4c\	-tes	4f\	-tes	4ee\	-tes
4F\	di-	4B-\	di-	4f\	di-	4dd\	di-
!	!	!	!	!	!	!LO:LB:g=original	!
=22	=22	=22	=22	=22	=22	=22	=22
2F\	-mit-	(4B-\	-mit-	2f\	-mit-	(4dd\	-mit-
.	.	4A\)	.	.	.	4cc\)	.
!LO:TX:t=P:problem:4G poprawione na 4F	!	!	!	!	!	!	!
4F\	-tis	4A\	-tis	4f\	-tis	4cc\	-tis
4F\	di-	4F/	di-	4f\	in	4f/	di-
=23	=23	=23	=23	=23	=23	=23	=23
!LO:TX:t=P:problem:4D poprawione na 2D	!	!	!	!	!	!	!
2D/	-mit-	2F/	-mit-	2f\	a-	2b-X\	-mit-
4C/	-tis	4A\	-tis	4f\	-nes	4.cc\	-tis
4C/	in-	4A\	in-	4f\	di-	.	.
.	.	.	.	.	.	8cc\	in-
!	!	!	!	!LO:LB:g=original	!	!	!
=24	=24	=24	=24	=24	=24	=24	=24
(>4.BB-/	-a-	4.B-\	-a-	2f\	-mi[t]-	(4.dd\	-a-
8C/)	.	8A\	.	.	.	8cc\)	.
4D\	-nes	4B-\	-nes	4f\	-tis	4b-\	-nes
!LO:TX:b:t=V&colon; S&colon;	!	!	!	!	!	!	!
4C/	di-	4F/	di-	4f\	in	4f/	di-
!LO:PB:g=original	!	!LO:LB:g=original	!	!	!	!	!
=25	=25	=25	=25	=25	=25	=25	=25
2D\	-mit-	2F/	-mit-	2f\	a-	2b-\	-mit-
4.C/	-tis	4A\	-tis	4f\	-nes	4.cc\	-tis
.	.	4A\	in-	4f\	in-	.	.
8C/	in-	.	.	.	.	8cc\	in-
!	!	!	!	!	!	!LO:LB:g=original	!
=26	=26	=26	=26	=26	=26	=26	=26
4.BB-/	-a-	(4.B-\	-a-	2f\	-a-	(4.dd\	-a-
8C/	.	8A\)	.	.	.	8cc\)	.
4D/	-nes	4B-\	-nes	4f\	-nes	4b-\	-nes
!	!	!LO:N:vis=8	!	!	!	!	!
4C/	in-	4c\	in-	4f\	in	4a\	in-
=27	=27	=27	=27	=27	=27	=27	=27
4BB-/	-a-	(2d\	-a-	(2.f\	a-	(2.g\	-a-
4BBn/	.	.	.	.	.	.	.
2C/	.	2c\)	.	.	.	.	.
.	.	.	.	4e\)	.	4cc\)	.
=28	=28	=28	=28	=28	=28	=28	=28
4D\	-nes	4A\	-nes	4f\	-nes	4a\	-nes
4G\	di-	4r	.	4r	.	4r	.
(4F\	-mit-	4r	.	4r	.	4r	.
4E\)	.	4c#X\	di-	4a\	di-	4ee\	di-
=29	=29	=29	=29	=29	=29	=29	=29
!	!	!	!	!	!	!LO:TX:t=P:problem:4ff poprawione na 2f	!
2D\	-tis	2d\	-mit-	2a\	-mit-	2ff\	-mit-
2D-X\	in-	4A-X\	-tis	4f\	-tis	4bn\	-tis
.	.	4A-\	in-	4f\	in-	4b\	in-
!	!	!	!	!LO:LB:g=original	!	!	!
=30	=30	=30	=30	=30	=30	=30	=30
1C	-a-	(4An\	-a-	(2f\	-a-	(2.cc\	-a-
.	.	4c\	.	.	.	.	.
.	.	2e\)	.	2g\)	.	.	.
.	.	.	.	.	.	4b-X\)	.
!LO:LB:g=original	!	!	!	!	!	!LO:LB:g=original	!
=31	=31	=31	=31	=31	=31	=31	=31
4Dn\	-nes	4f\	-nes	4f\	-nes	4a\	-nes
4G\	di-	4r	.	4r	.	4r	.
(4F\	-mit-	4r	.	4r	.	4r	.
4E\)	.	4c#X\	di-	4a\	di-	4ee\	di-
!	!	!LO:LB:g=original	!	!	!	!	!
=32	=32	=32	=32	=32	=32	=32	=32
2D\	-tis	2d\	-mit-	2a\	-mit-	2ff\	-mit-
2D-X\	in-	4A-X\	-tis	4f\	-tis	4bn\	-tis
.	.	4A-\	in-	4f\	in-	4b\	in-
=33	=33	=33	=33	=33	=33	=33	=33
[>1C	-a-	(1An	-a-	(1f	-a-	1cc	-a-
=34	=34	=34	=34	=34	=34	=34	=34
1C]	.	1B-X)	.	1c)	.	1e	.
=35	=35	=35	=35	=35	=35	=35	=35
1F 1FF	-nes.	2A\	-nes.	2c\	-nes.	2f/	-nes.
!	!	!	!	!	!	!LO:TX:b:t=Segue Ecce panis V&colon; S&colon;	!
.	.	2r	.	2r	.	2r	.
==	==	==	==	==	==	==	==
*-	*-	*-	*-	*-	*-	*-	*-
!!!system-decoration: [(s1,s2,s3,s4)]
!!!RDF**kern: > = above
!!!ENC: Marta Lawrence
!!!END: 2021-02-13
!!!ENC: Katarzyna Serwa
!!!END: 2021-02-02
